X:1
T:Cuba
M:6/8
L:1/8
R:Quickstep March
S:Giles Gibbs manuscript copybook (c. 1777-1780)
K:Emin
BGE EDE|GAB AGA|BGE EDE|G2A B2A|
BGE EDE|GAB AGA|BGE EDE|GBA G3:|
|:d3 d2e|d2B AGA|e3 e2g|d2B BAB|
d3 d2e|d2B AGA|BGE EDE|G3 G2:||

